X:1
T:Last Nights Fun
M:C|
L:1/8
R:Reel
Z:Eric Wilson, M.
K:D
ADFD A2 AB | AD (3FED EFGB | ADFD A2 (3Bcd | e2 fe dBAB :|
df~f2 af~f2 | df~f2 egfe | df~f2 af~f2 | g2fg edBc | 
df~f2 af~f2 | defd e2 fg | ~a3 bafe g | f2 ed BcdB |
